X: 11122
Q: "Allegretto"
M: 3/4
L: 1/16
K: A
E2 |\
ed B4 cd efga |\
ae c4 ec edBG |[1 (G8 A).E.F.G :|\
[2 (G8 A)EAc :|\
e2 e4 ag baec | ed d4 ba gfed |
ceag bagf edcB | BAGF E^DEG Be=dB |\
ae c4 ec edBG | (G8 A2) |]



